!!!!SEGMENT: pl-sa--552-a-ix-32--033_anonim--rondo.krn
!!!cenid: 18xx:544
!!!COM: Anonim
!!!COM-rismid: pe30004985
!!!CDT:
!!!CNT:
!!!OTL: Rondo
!!!PDT:
!!!AGN: Secular; Rondo
!!!SMS-siglum: PL-SA
!!!SMS-shelfmark: 552/A IX 32
!!!SMS-shelfwork: 033 W
!!!SMS-variant:
!!!SMS-altvar:
!!!NIFC-rismid: 1001069575
!!!URL-scan: http://bc.bdsandomierz.pl/dlibra/publication/1308/edition/1276/content
!!!ONB-nifc: Str. 17
**kern	**kern	**dynam
*part2	*part1	*part1
*staff2	*staff1	*
*Ipiano	*Ipiano	*
*I"Piano	*I"Piano	*
*clefF4	*clefG2	*
*k[]	*k[]	*
*C:	*C:	*
*M4/4	*M4/4	*
*met(c)	*met(c)	*
*	*Xtuplet	*
!LO:TX:a:t=P:problem:omyłkowo wpisany klucz F3 zamiast F4:global	!	!
!LO:TX:a:i:t=Rondo	!LO:TX:a:i:t=Moderato	!
4r	12dd\L	.
.	12cc\	.
.	12dd\J	.
*clefG2	*	*
=1	=1	=1
4e 4c/	4g/	.
4e 4c/	(12cc\L	.
.	12b\	.
.	12cc\J)	.
4f 4B/	4dd\	.
4f 4B/	12dd\L	.
.	12cc#X\	.
.	12dd\J	.
=2	=2	=2
4f 4B/	4g/	.
4f 4B/	12dd\L	.
.	12cc#X\	.
.	12dd\J	.
4e 4c/	4ee\	.
4c 4B-X/	12cc#\L	.
.	12ee\	.
.	12gg\J	.
*clefF4	*	*
=3	=3	=3
4c 4A\	12ff\L	.
.	12gg\	.
.	12ff\J	.
4B 4G\	12ee\L	.
.	12ff\	.
.	12ee\J	.
4A 4F\	12dd\L	.
.	12ee\	.
.	12dd\J	.
4A 4F#X\	12cc\L	.
.	12dd\	.
.	12cc\J	.
=4	=4	=4
4G\	12b\L	.
.	12cc\	.
.	12dd\J	.
4D\	12cc\L	.
.	12b\	.
.	12a\J	.
4AA/	4g/	.
4r	12cc\L	.
.	12b\	.
.	12cc\J	.
*clefG2	*	*
=5	=5	=5
4e 4c/	4g/	.
4e 4c/	12cc\L	.
.	12b\	.
.	12cc\J	.
4f 4B/	4dd\	.
4f 4B/	12dd\L	.
.	12cc#X\	.
.	12dd\J	.
=6	=6	=6
4f 4B/	4g/	.
4f 4B/	12dd\L	.
.	12cc#X\	.
.	12dd\J	.
4e 4c/	4ee\	.
4c 4B-X/	12cc#\L	.
.	12ee\	.
.	12gg\J	.
*clefF4	*	*
=7	=7	=7
4c 4A\	12ff\L	.
.	12gg\	.
.	12ff\J	.
4B 4G\	12ee\L	.
.	12ff\	.
.	12ee\J	.
4A 4F\	12dd\L	.
.	12ee\	.
.	12dd\J	.
4A 4F#X\	12cc\L	.
.	12dd\	.
.	12cc\J	.
!!LO:LB:g=original
=	=	=
4A 4F\	12dd\L	.
.	12ee\	.
.	12ff\J	.
4G 4GG/	12g\L	.
.	12a\	.
.	12b\J	.
4E 4C\	4cc\	.
=8||	=8||	=8||
4r	12ee\L	p
.	12dd#X\	.
.	12ee\J	.
=9	=9	=9
4d 4B\	4g#X/	.
4E\	12ee\L	.
.	12dd#X\	.
.	12ee\J	.
4c 4A\	4a\	.
4E\	12ee\L	.
.	12dd#\	.
.	12ee\J	.
=10	=10	=10
4c 4A\	12aa\L	.
.	12gg#X\	.
.	12aa\J	.
4D#X\	12ccc\L	.
.	12bb\	.
.	12aa\J	.
4B 4E\	6gg#m\	.
.	12ccc\	.
4r	12ee\L	.
.	12dd\	.
.	12ee\J	.
=11	=11	=11
4d 4B\	12g#X/L	.
.	12f##X/	.
.	12g#/J	.
4E\	12ee\L	.
.	12dd#X\	.
.	12ee\J	.
4c 4A\	12g#/L	<
.	12f##/	.
.	12g#/J	.
4E\	12ee\L	.
.	12dd#\	.
.	12ee\J	.
=12	=12	=12
4A 4F#X\	12ddn\L	.
.	12ee\	.
.	12cc#X\J	.
4d\	12dd\L	.
.	12ee\	.
.	12ccn\J	.
4B 4G\	12b\L	.
.	12dd\	.
.	12ff#X\J	.
4d\	12gg\L	.
.	12dd\	.
.	12b\J	.
=13	=13	=13
4A 4C\	12a\L	.
.	12ee\	.
.	12a\J	.
4B 4D\	12g#X\L	.
.	12ee\	.
.	12g#\J	.
4A 4C\	12a\L	.
.	12ee\	.
.	12a\J	.
4B 4D\	12g#\L	.
.	12ee\	.
.	12g#\J	.
!!LO:LB:g=original
=14	=14	=14
4A 4C\	12a\L	.
.	12ee\	.
.	12dd\J	.
4E 4C\	12cc\L	.
.	12b\	.
.	12a\J	.
4B 4D\	4g/	.
.	16qqa/	.
4B 4D\	12g/L	.
.	12f#X/	.
.	12g/J	.
=15	=15	=15
4d 4F#X 4D\	4b/	.
4d 4F# 4D\	4a/	.
4B 4F#\	12f/	.
.	6g/	.
*	*tuplet	*
!	!LO:TUP:b:problem:klamra łukowa	!
4r	12b/L	.
.	12a#X/	p
.	12b/J	.
=16	=16	=16
4B 4G\	4g/	.
!	!LO:TUP:a:problem:klamra łukowa	!
4r	12dd\L	.
.	12cc#X\	.
.	12dd\J	.
4B 4G\	4b\	.
!	!LO:TUP:a:problem:klamra łukowa	!
4r	12ff\L	.
.	12ee\	.
.	12ff\J	.
=17	=17	=17
2B 2G\	4dd\	.
*	*Xtuplet	*
.	12aa\L	.
.	12gg#X\	.
.	12aa\J	.
2r	12ff\L	.
.	12ee\	.
.	12ff\J	.
.	12dd\L	.
.	12cc#X\	.
.	12dd\J	.
=18	=18	=18
1r	12b\L	.
.	12a#X\	.
.	12b\J	.
.	12g/L	.
.	12f#X/	.
.	12g/J	.
.	12g#X/L	.
.	12f##X/	.
.	12g#/J	.
.	12an/L	.
.	12g#/	.
.	12a/J	.
=19	=19	=19
1ryy	12b-X\L	.
.	12a\	.
.	12b-\J	.
.	12bn\L	.
.	12a#X\	.
.	12b\J	.
.	4r	.
.	12cc\L	.
.	12b\	.
.	12cc\J	.
*clefG2	*	*
!!LO:LB:g=original
=20	=20	=20
4e 4c/	4g/	.
4e 4c/	12cc\L	.
.	12b\	.
.	12cc\J	.
4f 4B/	4dd\	.
4f 4B/	12dd\L	.
.	12cc#X\	.
.	12dd\J	.
=21	=21	=21
4f 4B/	4g/	.
4f 4B/	12dd\L	.
.	12cc#X\	.
.	12dd\J	.
4e 4c/	4ee\	.
4c 4B/	12cc#\L	.
.	12ee\	.
.	12gg\J	.
!LO:CL:ed	!	!
*clefF4	*	*
=22	=22	=22
4c 4A\	12ff\L	.
.	12gg\	.
.	12ff\J	.
4c 4G\	12ee\L	.
.	12ff\	.
.	12ee\J	.
4c 4F\	12dd\L	.
.	12ee\	.
.	12dd\J	.
4c 4E\	12cc\L	.
.	12ee\	.
.	12gg\J	.
=23	=23	=23
4c 4A\	12ff\L	.
.	12gg\	.
.	12ff\J	.
4c 4G\	12ee\L	.
.	12ff\	.
.	12ee\J	.
4c 4F\	12dd\L	.
.	12ee\	.
.	12dd\J	.
4c 4E\	12cc\L	.
.	12ee\	.
.	12gg\J	.
=24	=24	=24
4c 4A\	12ff\L	.
.	12gg\	.
.	12ff\J	.
4c 4G\	12ee\L	.
.	12ff\	.
.	12ee\J	.
4c 4F\	12dd\L	.
.	12ee\	.
.	12dd\J	.
4E 4C\	12cc\L	.
.	12b\	.
.	12cc\J	.
=25	=25	=25
4A 4F\	12dd\L	.
.	12ee\	.
.	12ff\J	.
4G 4GG\	12g\L	.
.	12a\	.
.	12b\J	.
4E 4C\	4cc\	.
4G\	12ccc\L	.
.	12bb\	.
.	12aa\J	.
=26	=26	=26
4D 4BB\	12gg\L	.
.	12aa\	.
.	12ff#X\J	.
4G\	12gg\L	.
.	12aa\	.
.	12ffn\J	.
4E 4C\	4ee\	.
4F 4D 4GG\	12dd\L	.
.	12ee\	.
.	12ff\J	.
!!LO:LB:g=original
=27	=27	=27
*clefF4	*	*
4E 4GG/	4cc\	.
.	16qqdd/	.
4F 4GG/	12cc\L	.
.	12b\	.
.	12a\J	.
*Xtuplet	*	*
12C\L	4cc\	.
12E\	.	.
12G\J	.	.
*rep	*	*
12C\L	12ccc\L	.
12E\	12bb\	.
12G\J	12aa\J	.
*Xrep	*	*
=28	=28	=28
12BB\L	12gg\L	.
12D\	12aa\	.
12G\J	12ff#X\J	.
*rep	*	*
12BB\L	12gg\L	.
12D\	12aa\	.
12G\J	12ffn\J	.
*Xrep	*	*
12C\L	4ee\	.
12E\	.	.
12G\J	.	.
12FF\L	12dd\L	.
12AA\	12ee\	.
12D\J	12ff\J	.
=29	=29	=29
12GG\L	4cc\	.
12C\	.	.
12E\J	.	.
.	8qdd/	.
*rep	*	*
12GG\L	12cc\L	.
12C\	12b\	.
12E\J	12a\J	.
*Xrep	*	*
12GG\L	4ee 4a\	.
12C\	.	.
12F#X\J	.	.
*rep	*	*
12GG\L	4dd 4b\	.
12C\	.	.
12F#\J	.	.
*Xrep	*	*
=30	=30	=30
12C\L	4cc\	.
12E\	.	.
12G\J	.	.
12GG\L	4r	.
12E\	.	.
12G\J	.	.
*rep	*	*
!	!LO:S:s:=2:note:problem:note-level slur	!
12C\L	(>2ee &(>2g/	.
12E\	.	.
12G\J	.	.
*Xrep	*	*
*rep	*	*
12GG\L	.	.
12E\	.	.
12G\J	.	.
*Xrep	*	*
=31	=31	=31
*rep	*	*
!	!LO:S:s:=2:note:problem:note-level slur	!
12C\L	4cc) 4e/&)	.
12E\	.	.
12G\J	.	.
*Xrep	*	*
*rep	*	*
12GG\L	4r	.
12E\	.	.
12G\J	.	.
*Xrep	*	*
*rep	*	*
!	!LO:S:s:=2:note:problem:note-level slur	!
12C\L	(>2g &(>2e/	.
12E\	.	.
12G\J	.	.
*Xrep	*	*
*rep	*	*
12GG\L	.	.
12E\	.	.
12G\J	.	.
*Xrep	*	*
=32	=32	=32
!	!LO:S:s:=2:note:problem:note-level slur	!
4C/	4e) 4c/&)	.
4r	4r	.
4G 4GG/	4bb 4gg 4dd 4b\	.
4r	4r	.
=33	=33	=33
4C 4CC/	4ccc 4gg 4ee 4cc\	.
4r	4r	.
4r	4r	.
4ryy	4ryy	.
==	==	==
*-	*-	*-
!!!system-decoration: {s1,s2}
!!!RDF**kern: > = above
!!!RDF**dynam: < = "cres:"
!!!ENC: Marta Lawrence
!!!END: 2020-12-13
!!!ENC: Berenika Jozajtis
!!!END: 2020-06-18
